X: 96
T:Touhey's Favorite Reel (#292)
M:4/4
L:1/8
S:Patsy Touhey manuscript
R:Reel
K:D
dc||BE ~E2 BAFE|D2 FD ADFD|BE ~E2 BAFA|(3Bcd eg fddc|
BE ~E2 BAFE|DAFA DAFA|BE ~E2 BAFA|(3Bcd eg fddA||
d2 fd adfd|(3Bcd ef gfec|d2 fd adfd|(3Bcd eg fddc|
d2 fd affd|(3Bcd ef g2 fg|afge fdec|(3Bcd eg fd d2||
%
% This is a special setting of "Pat Touhey's Reel" in O'Neill's 
% Dance Music of Ireland.

